vendor/bundle/ruby/2.6.0/gems/jekyll-theme-leap-day-0.1.1/assets/images/octocat-logo.svg

<svg height="36" viewBox="0 0 36 36" width="36" xmlns="http://www.w3.org/2000/svg"><path d="m18 0a18.000056 18.000669 0 0 0 -18 18 18.000056 18.000669 0 0 0 18 18 18.000056 18.000669 0 0 0 18-18 18.000056 18.000669 0 0 0 -18-18zm0 2.6542969a15.344311 15.344834 0 0 1 15.34375 15.3457031 15.344311 15.344834 0 0 1 -.068359 1.332031c-.758475-.062247-2.025385-.158203-2.90625-.158203-.366796 0-.881667.038145-1.365235.066406.13249-.710144.20703-1.498245.207032-2.386718a6.7759857 6.8161667 0 0 0 -1.779297-4.636719c.104302-.421883.73411-2.21468-.208985-4.5332032 0 0-.09104-.0263501-.279297-.03125-.564783-.01472-2.001537.1626136-4.4375 1.8222656-1.362491-.316229-2.828859-.5253906-4.294921-.5253906-1.466793 0-2.93389.1061937-4.294922.5273437-3.24868-2.212869-4.712891-1.7910156-4.712891-1.7910156-.9430942 2.3185231-.4202705 4.1093671-.2109375 4.5312501-1.1524282 1.264916-1.78125 2.740078-1.78125 4.636719 0 .895597.0763155 1.690442.2109375 2.408203-.6552879-.043288-1.3704612-.087891-1.8632812-.087891-.8720629 0-2.0883564.095503-2.8339844.158203a15.344311 15.344834 0 0 1 -.0683594-1.332031 15.344311 15.344834 0 0 1 15.34375-15.3457031zm-12.4414062 16.9863281c.5212453 0 1.2841604.049228 1.9707031.095703.0224589.093974.0397364.196224.0644531.28711-.704041-.048316-1.4968783-.097657-2.0351562-.097657-.8306519 0-1.967764.086288-2.7421876.150391a15.344311 15.344834 0 0 1 -.0429687-.28125c.7625115-.063594 1.9351599-.154297 2.7851563-.154297zm24.8105472 0c.858613 0 2.078193.092965 2.855468.15625a15.344311 15.344834 0 0 1 -.042968.28125c-.79026-.063894-1.972709-.152344-2.8125-.152344-.412974 0-.992231.042335-1.53711.076172.024973-.09171.041805-.194123.064453-.289062.522269-.031743 1.077009-.072266 1.472657-.072266zm-24.8105472.753906c.5790923 0 1.4476656.051053 2.1894531.103516 1.2039099 3.578018 4.2700421 4.563474 7.2167971 4.892578-.419397.421884-.943302 1.159097-1.046875 2.318359-.943094.422616-3.353228 1.159411-4.9257815-1.474609 0 0-.9430136-1.685362-2.6191406-1.791016 0 0-1.6765638-.000139-.1054688 1.052735 0 0 1.1536868.528221 1.8867188 2.53125 0 0 1.0501509 3.371966 5.7656251 2.318359v2.429688a15.344311 15.344834 0 0 1 -11.0332032-12.236329c.7883293-.064414 1.8728601-.144531 2.671875-.144531zm24.8105472 0c.809005 0 1.936223.0821 2.742187.146485a15.344311 15.344834 0 0 1 -10.5 12.076172v-4.169922c0-1.581146-.522885-2.635306-1.152344-3.16211 2.949924-.32933 6.017254-1.252304 7.21875-4.808594.596618-.038807 1.236982-.082031 1.691407-.082031zm-12.22461 6.330078c.14391 0 .259766.178232.259766.400391v6.244141a9.9683741 15.388561 0 0 1 -.353516.019531 9.9683741 15.388561 0 0 1 -.167969-.013672v-6.25c0-.222159.117809-.400391.261719-.400391zm-1.980469.861329c.14391 0 .259766.180184.259766.402343v5.328125a9.9683741 15.388561 0 0 1 -.519531-.113281v-5.214844c0-.222159.115855-.402343.259765-.402343zm4.021485 0c.14391-.000002.259765.180184.259765.402343v5.185547a9.9683741 15.388561 0 0 1 -.519531.097656v-5.283203c0-.222159.115856-.402343.259766-.402343z" fill="#231e1e" fill-opacity=".2" stroke-width=".809865"/></svg>

<svg xmlns="http://www.w3.org/2000/svg" xmlns:svg="http://www.w3.org/2000/svg" id="Layer_1" width="36" height="36" version="1.1" viewBox="0 0 36 36"><metadata id="metadata17"/><style id="style3"/><linearGradient id="SVGID_1_" x1="-216.625" x2="-215.918" y1="-385.75" y2="-385.043" gradientUnits="userSpaceOnUse"><stop id="stop6" offset="0" stop-color="#dedfe3"/><stop id="stop8" offset=".174" stop-color="#d8d9dd"/><stop id="stop10" offset=".352" stop-color="#c9cacd"/><stop id="stop12" offset=".532" stop-color="#b4b5b8"/><stop id="stop14" offset=".714" stop-color="#989a9c"/><stop id="stop16" offset=".895" stop-color="#797c7e"/><stop id="stop18" offset="1" stop-color="#656b6c"/></linearGradient><path id="path57" d="M 18 0 A 18.000056 18.000669 0 0 0 0 18 A 18.000056 18.000669 0 0 0 18 36 A 18.000056 18.000669 0 0 0 36 18 A 18.000056 18.000669 0 0 0 18 0 z M 18 2.6542969 A 15.344311 15.344834 0 0 1 33.34375 18 A 15.344311 15.344834 0 0 1 33.275391 19.332031 C 32.516916 19.269784 31.250006 19.173828 30.369141 19.173828 C 30.002345 19.173828 29.487474 19.211973 29.003906 19.240234 C 29.136396 18.53009 29.210936 17.741989 29.210938 16.853516 A 6.7759857 6.8161667 0 0 0 27.431641 12.216797 C 27.535943 11.794914 28.165751 10.002117 27.222656 7.6835938 C 27.222656 7.6835938 27.131616 7.6572437 26.943359 7.6523438 C 26.378576 7.6376238 24.941822 7.8149574 22.505859 9.4746094 C 21.143368 9.1583804 19.677 8.9492188 18.210938 8.9492188 C 16.744145 8.9492188 15.277048 9.0554125 13.916016 9.4765625 C 10.667336 7.2636935 9.203125 7.6855469 9.203125 7.6855469 C 8.2600308 10.00407 8.7828545 11.794914 8.9921875 12.216797 C 7.8397593 13.481713 7.2109375 14.956875 7.2109375 16.853516 C 7.2109375 17.749113 7.287253 18.543958 7.421875 19.261719 C 6.7665871 19.218431 6.0514138 19.173828 5.5585938 19.173828 C 4.6865309 19.173828 3.4702374 19.269331 2.7246094 19.332031 A 15.344311 15.344834 0 0 1 2.65625 18 A 15.344311 15.344834 0 0 1 18 2.6542969 z M 5.5585938 19.640625 C 6.0798391 19.640625 6.8427542 19.689853 7.5292969 19.736328 C 7.5517558 19.830302 7.5690333 19.932552 7.59375 20.023438 C 6.889709 19.975122 6.0968717 19.925781 5.5585938 19.925781 C 4.7279419 19.925781 3.5908298 20.012069 2.8164062 20.076172 A 15.344311 15.344834 0 0 1 2.7734375 19.794922 C 3.535949 19.731328 4.7085974 19.640625 5.5585938 19.640625 z M 30.369141 19.640625 C 31.227754 19.640625 32.447334 19.73359 33.224609 19.796875 A 15.344311 15.344834 0 0 1 33.181641 20.078125 C 32.391381 20.014231 31.208932 19.925781 30.369141 19.925781 C 29.956167 19.925781 29.37691 19.968116 28.832031 20.001953 C 28.857004 19.910243 28.873836 19.80783 28.896484 19.712891 C 29.418753 19.681148 29.973493 19.640625 30.369141 19.640625 z M 5.5585938 20.394531 C 6.1376861 20.394531 7.0062594 20.445584 7.7480469 20.498047 C 8.9519568 24.076065 12.018089 25.061521 14.964844 25.390625 C 14.545447 25.812509 14.021542 26.549722 13.917969 27.708984 C 12.974875 28.1316 10.564741 28.868395 8.9921875 26.234375 C 8.9921875 26.234375 8.0491739 24.549013 6.3730469 24.443359 C 6.3730469 24.443359 4.6964831 24.44322 6.2675781 25.496094 C 6.2675781 25.496094 7.4212649 26.024315 8.1542969 28.027344 C 8.1542969 28.027344 9.2044478 31.39931 13.919922 30.345703 L 13.919922 32.775391 A 15.344311 15.344834 0 0 1 2.8867188 20.539062 C 3.6750481 20.474648 4.7595789 20.394531 5.5585938 20.394531 z M 30.369141 20.394531 C 31.178146 20.394531 32.305364 20.476631 33.111328 20.541016 A 15.344311 15.344834 0 0 1 22.611328 32.617188 L 22.611328 28.447266 C 22.611328 26.86612 22.088443 25.81196 21.458984 25.285156 C 24.408908 24.955826 27.476238 24.032852 28.677734 20.476562 C 29.274352 20.437755 29.914716 20.394531 30.369141 20.394531 z M 18.144531 26.724609 C 18.288441 26.724609 18.404297 26.902841 18.404297 27.125 L 18.404297 33.369141 A 9.9683741 15.388561 0 0 1 18.050781 33.388672 A 9.9683741 15.388561 0 0 1 17.882812 33.375 L 17.882812 27.125 C 17.882812 26.902841 18.000621 26.724609 18.144531 26.724609 z M 16.164062 27.585938 C 16.307972 27.585938 16.423828 27.766122 16.423828 27.988281 L 16.423828 33.316406 A 9.9683741 15.388561 0 0 1 15.904297 33.203125 L 15.904297 27.988281 C 15.904297 27.766122 16.020152 27.585938 16.164062 27.585938 z M 20.185547 27.585938 C 20.329457 27.585936 20.445312 27.766122 20.445312 27.988281 L 20.445312 33.173828 A 9.9683741 15.388561 0 0 1 19.925781 33.271484 L 19.925781 27.988281 C 19.925781 27.766122 20.041637 27.585938 20.185547 27.585938 z" style="fill:#231e1e;fill-opacity:.2;stroke-width:.809865"/></svg>
